sites/OJJO/images/facebookwhite.svg

<svg width="26" height="26" viewBox="0 0 26 26" fill="none" xmlns="http://www.w3.org/2000/svg">
<path d="M14.5134 22.7467V13.8677H17.5088L17.9541 10.3913H14.5134V8.17694C14.5134 7.17377 14.7929 6.48694 16.2327 6.48694H18.057V3.38752C17.1694 3.2924 16.2771 3.24646 15.3844 3.24994C12.7367 3.24994 10.9189 4.86627 10.9189 7.83352V10.3848H7.94299V13.8612H10.9254V22.7467H14.5134Z" fill="white"/>
</svg>

<svg width="26" height="26" fill="none" xmlns="http://www.w3.org/2000/svg"><path d="M14.513 22.747v-8.88h2.996l.445-3.476h-3.44V8.177c0-1.003.279-1.69 1.719-1.69h1.824v-3.1a24.198 24.198 0 0 0-2.673-.137c-2.647 0-4.465 1.616-4.465 4.584v2.55H7.943v3.477h2.982v8.886h3.588Z" fill="#fff"/></svg>
